X: 53
T: Song of a Wolf
C: Teton Sioux band 1911-1914
N: Derived from sioux053.krn
O: South Dakota, U.S.A.
N: Teton Sioux Music by Frances Densmore, 1918
Z: transcribed to **kern format by Craig Sapp
L: 1/8
M: 2/4
Q: 1/4=58
K: E clef=bass
%%linebreak <none>
B,3/ C/ [I:setbarnb 1]| 
B, B,/ B,/ B, B, ||  
[M:3/4]B, G,G,2B, C/ C/ ||  
[M:2/4]B,2B, B, | 
B, G, (3(G, F, E,) | 
E,2G,3/ B,/ | 
G,2F, F, ||  
[M:3/4]F, E, (3E, C, B,,B,,2 ||  
[M:2/4]F,3E, | 
C, F, E, C, ||  
[M:3/4]B,, B,,2<B,,2B,, | 
B,,6 |]  



